X:343
T: ROSENROTH IST MEINE NOTH
N: E0969
O: Europa, Mitteleuropa, Deutschland, Hohen - Saathen a.d. Oder
R: Tanz - Lied, Reigen, Ostern, Pfingsten
M: 2/4
L: 1/16
K: C
 | G,2G,2C2G,2 | E,2F,2G,4
G,2G,2C2G,2 | E,2F,2G,4
G,4A,4 | B,4z4
G,2A,2B,2C2 | D2E2D2
C2 | B,2B,2A,2A,2 | G,4z2
G,2 | C2G,2G,3F, | E,2D,2C,2z
F, | E,2D,2E,2F,2 | G,2G,2z2
G,2 | C2G,2G,2 | G,2E,2
G,2 | C2G,2G,2 | G,2E,2z2
C2C2CC | C2C2z2

